dist/img/sprites/hPolicy.svg

<svg width="33" height="35" viewBox="0 0 33 35" fill="none" xmlns="http://www.w3.org/2000/svg">
<path d="M25.3824 12.8507C23.9859 12.8507 22.6518 12.8123 21.3208 12.8582C18.2759 12.9628 15.833 11.042 15.2924 8.04614C15.213 7.60626 15.231 7.14502 15.2279 6.69339C15.2205 5.35026 15.2247 4.00605 15.2247 2.60098C15.0787 2.60098 14.9411 2.60098 14.8025 2.60098C12.0433 2.60098 9.28302 2.59671 6.52378 2.60526C6.07731 2.60632 5.62554 2.63302 5.18436 2.70028C3.72222 2.92449 2.85255 3.82134 2.65365 5.30221C2.59864 5.71006 2.57007 6.12432 2.57007 6.53645C2.56478 13.2906 2.56478 20.0447 2.57007 26.7988C2.57007 27.2494 2.59546 27.7074 2.67481 28.1505C2.952 29.6901 3.91901 30.5752 5.50705 30.6692C6.75759 30.7428 8.01343 30.7258 9.26715 30.7354C10.5209 30.745 11.7756 30.7332 13.0304 30.7396C13.8377 30.7439 14.3751 31.2446 14.3857 31.9845C14.3973 32.7415 13.8546 33.2882 13.0421 33.2925C10.9028 33.3021 8.7646 33.3063 6.62534 33.2903C5.89004 33.285 5.13464 33.3117 4.42473 33.1547C1.67924 32.5515 -0.158486 30.0296 0.0107921 27.1992C0.02243 26.9996 0.0298359 26.7999 0.0298359 26.6002C0.0298359 19.9657 0.0256039 13.3311 0.0372418 6.69766C0.0382998 5.90438 0.021372 5.0844 0.200172 4.32315C0.850836 1.57174 3.47148 -0.249715 6.25611 0.0278814C6.41375 0.0438966 6.57245 0.0438966 6.73114 0.0438966C9.89982 0.0438966 13.0685 0.052438 16.2372 0.0374905C16.7926 0.0342875 17.2158 0.210454 17.6073 0.60763C20.8574 3.90355 24.1171 7.18986 27.381 10.4708C27.7513 10.8435 27.9343 11.2513 27.9227 11.7841C27.9005 12.8091 27.9195 13.8351 27.9153 14.8611C27.911 15.6726 27.3789 16.2352 26.633 16.2278C25.9083 16.2214 25.3877 15.6587 25.3824 14.8697C25.3782 14.2066 25.3824 13.5436 25.3824 12.8518V12.8507ZM17.8559 4.60181C17.8559 5.52322 17.7914 6.5247 17.8728 7.51444C17.9659 8.64724 18.5161 9.53982 19.6259 9.95835C20.8807 10.4303 22.1884 10.2338 23.4876 10.2808C21.5673 8.34402 19.6799 6.44142 17.8559 4.60181Z" fill="#4B8125"/>
<path d="M20.056 34.9954C19.4624 34.9954 18.8678 35.0007 18.2743 34.9943C17.4829 34.9858 16.9476 34.4776 16.936 33.6768C16.918 32.4383 16.901 31.1977 16.9508 29.9613C16.9645 29.625 17.1423 29.2203 17.3782 28.979C20.4146 25.8646 23.4712 22.7694 26.5319 19.6796C27.701 18.4987 29.3441 18.4934 30.5301 19.6454C31.0622 20.1632 31.5859 20.6896 32.1012 21.2256C33.3009 22.4726 33.302 24.1254 32.0853 25.3511C29.0415 28.4206 25.986 31.4795 22.9379 34.5448C22.6311 34.8534 22.2756 35.0082 21.8387 34.9997C21.2452 34.9879 20.6506 34.9965 20.057 34.9965L20.056 34.9954ZM25.4866 24.3774C25.4866 24.3774 25.4623 24.3827 25.4443 24.4008C23.4976 26.3707 21.552 28.3416 19.6095 30.3158C19.5407 30.3852 19.4698 30.4919 19.4688 30.5827C19.4561 31.1902 19.4624 31.7988 19.4624 32.4383C20.0369 32.4383 20.5627 32.4597 21.0865 32.4276C21.2854 32.4148 21.5266 32.3294 21.6652 32.1928C23.5262 30.3446 25.3734 28.4804 27.2239 26.6205C27.3159 26.5287 27.4027 26.4316 27.4545 26.3771C26.7901 25.7013 26.1426 25.0436 25.4877 24.3795L25.4866 24.3774ZM27.3349 22.4075C28.0565 23.1346 28.7103 23.7933 29.4001 24.4884C29.6784 24.1948 29.981 23.8627 30.2984 23.5435C30.4708 23.3695 30.4994 23.2211 30.3153 23.0374C29.799 22.5249 29.2986 21.9954 28.7675 21.4978C28.6871 21.422 28.4321 21.4178 28.3432 21.4893C27.9761 21.785 27.6418 22.1224 27.336 22.4075H27.3349Z" fill="#4B8125"/>
<path d="M13.9718 15.3919C15.9238 15.3919 17.8758 15.3855 19.8278 15.3951C20.7335 15.3994 21.328 16.1478 21.108 16.986C20.9831 17.4621 20.6742 17.7728 20.2013 17.8913C20.0119 17.9383 19.8098 17.9469 19.6141 17.9469C15.8551 17.9501 12.0971 17.9511 8.33804 17.9447C8.09153 17.9447 7.83021 17.9244 7.60062 17.8433C7.04412 17.6468 6.71403 17.0447 6.80925 16.4756C6.91399 15.8499 7.37316 15.4239 7.99843 15.3972C8.39306 15.3802 8.7898 15.3908 9.18549 15.3898C10.7809 15.3898 12.3774 15.3898 13.9729 15.3898L13.9718 15.3919Z" fill="#4B8125"/>
<path d="M11.4593 22.2057C12.5406 22.2057 13.6218 22.2025 14.702 22.2057C15.5051 22.2089 16.0827 22.7417 16.088 23.4763C16.0933 24.2098 15.5135 24.7607 14.7179 24.7617C12.5289 24.7649 10.341 24.766 8.15203 24.7617C7.35854 24.7607 6.7777 24.2033 6.78722 23.4709C6.79675 22.7438 7.3596 22.2111 8.13616 22.2068C9.24388 22.2014 10.3505 22.2057 11.4582 22.2057H11.4593Z" fill="#4B8125"/>
</svg>

<svg width="33" height="35" viewBox="0 0 33 35" fill="none" xmlns="http://www.w3.org/2000/svg"><path d="M25.382 12.85c-1.396 0-2.73-.038-4.061.008-3.045.105-5.488-1.816-6.029-4.812-.079-.44-.061-.901-.064-1.353-.008-1.343-.003-2.687-.003-4.092h-.422c-2.76 0-5.52-.004-8.28.004a9.063 9.063 0 00-1.339.095c-1.462.224-2.331 1.121-2.53 2.602a9.256 9.256 0 00-.084 1.234c-.005 6.755-.005 13.509 0 20.263 0 .45.025.908.105 1.352.277 1.54 1.244 2.424 2.832 2.518 1.25.074 2.506.057 3.76.066 1.254.01 2.509-.002 3.763.005.808.004 1.345.505 1.356 1.245.011.757-.531 1.303-1.344 1.307-2.14.01-4.277.014-6.417-.002-.735-.005-1.49.022-2.2-.135C1.679 32.55-.158 30.03.01 27.199c.011-.2.019-.4.019-.599 0-6.634-.004-13.269.007-19.902C.038 5.904.021 5.084.2 4.323.85 1.572 3.471-.25 6.256.028c.158.016.316.016.475.016 3.169 0 6.338.008 9.506-.007.556-.003.979.173 1.37.57 3.25 3.297 6.51 6.583 9.774 9.864.37.373.553.78.542 1.313-.022 1.025-.003 2.051-.008 3.077-.004.812-.536 1.374-1.282 1.367-.725-.007-1.245-.57-1.25-1.358-.005-.663 0-1.326 0-2.018v-.001zm-7.526-8.248c0 .921-.065 1.923.017 2.912.093 1.133.643 2.026 1.753 2.444 1.255.472 2.562.276 3.862.323L17.856 4.6zm2.2 30.393c-.594 0-1.188.006-1.782 0-.791-.01-1.326-.517-1.338-1.318-.018-1.239-.035-2.48.015-3.716a1.63 1.63 0 01.427-.982 1641.56 1641.56 0 019.154-9.3c1.169-1.18 2.812-1.186 3.998-.034a66.89 66.89 0 011.571 1.58c1.2 1.248 1.201 2.9-.016 4.126-3.044 3.07-6.099 6.129-9.147 9.194a1.44 1.44 0 01-1.1.455c-.593-.012-1.187-.004-1.781-.004h-.001zm5.43-10.618s-.024.006-.042.024c-1.946 1.97-3.892 3.94-5.834 5.915-.07.07-.14.176-.141.267-.013.607-.007 1.216-.007 1.855.575 0 1.1.022 1.625-.01.198-.013.44-.099.578-.235 1.861-1.848 3.708-3.713 5.559-5.572.092-.092.179-.19.23-.244a1820.22 1820.22 0 00-1.966-1.997l-.001-.003zm1.849-1.97l2.065 2.081c.278-.293.581-.625.898-.944.173-.175.201-.323.017-.507-.516-.512-1.016-1.042-1.548-1.54-.08-.075-.335-.08-.424-.008-.367.296-.701.633-1.007.918h-.001z" fill="#4B8125"/><path d="M13.972 15.392c1.952 0 3.904-.006 5.856.003.905.004 1.5.753 1.28 1.591-.125.476-.434.787-.907.905-.19.047-.391.056-.587.056-3.759.003-7.517.004-11.276-.002a2.25 2.25 0 01-.737-.102c-.557-.196-.887-.798-.792-1.367.105-.626.564-1.052 1.19-1.079.394-.017.79-.006 1.186-.007h4.788l-.001.002zm-2.512 6.814c1.08 0 2.162-.003 3.242 0 .803.003 1.38.536 1.386 1.27.005.734-.575 1.285-1.37 1.286-2.19.003-4.377.004-6.566 0-.793-.001-1.374-.559-1.365-1.291.01-.727.573-1.26 1.35-1.264 1.107-.006 2.213-.001 3.321-.001h.001z" fill="#4B8125"/></svg>
